icons/desktop/16/svg/briefcase-16.svg

<svg width="16" height="16" viewBox="0 0 16 16" fill="none" xmlns="http://www.w3.org/2000/svg">
<path fill-rule="evenodd" clip-rule="evenodd" d="M8 0C8.62446 0 9.20492 0.0370712 9.73535 0.0947266C10.7612 0.206024 11.5 1.08398 11.5 2.08301V3.11328C11.9179 3.14058 12.3438 3.17409 12.7773 3.21289L13.5225 3.28516L13.7812 3.32422C15.0525 3.57884 16 4.69884 16 6.02539V11.9746C16 13.3741 14.9513 14.5653 13.5459 14.7119C11.8584 14.8874 10.0011 15 8 15C6.33683 15 4.48373 14.9228 2.47754 14.7148C1.07827 14.5696 0 13.3897 0 11.9746V6.02539C0 4.62588 1.04865 3.43465 2.4541 3.28809C3.11084 3.21981 3.79334 3.16155 4.5 3.11523V2.08496C4.50002 1.06215 5.27649 0.199619 6.29199 0.0908203C6.91919 0.0236949 7.49319 0 8 0ZM8 4.5C6.95868 4.5 5.9574 4.53151 5 4.58691V13.4121C6.05766 13.4731 7.05992 13.5 8 13.5C9.04134 13.5 10.0426 13.4675 11 13.4121V4.58691C9.94237 4.52588 8.94006 4.5 8 4.5ZM3.5 4.69629C3.19804 4.72249 2.90106 4.74995 2.60938 4.78027C1.9811 4.84597 1.5 5.38109 1.5 6.02539V11.9746C1.5 12.6135 1.99009 13.1559 2.63281 13.2227C2.92525 13.253 3.21438 13.2799 3.5 13.3047V4.69629ZM12.5 13.3027C12.8019 13.2765 13.099 13.25 13.3906 13.2197C14.0189 13.154 14.5 12.6189 14.5 11.9746V6.02539C14.5 5.38652 14.0099 4.84407 13.3672 4.77734C13.0747 4.74704 12.7856 4.71911 12.5 4.69434V13.3027ZM8 1.5C7.54089 1.5 7.02083 1.52216 6.45215 1.58301C6.19773 1.61025 6.00002 1.82984 6 2.08496V3.03809C6.64919 3.01377 7.31619 3 8 3C8.63934 3 9.30665 3.01327 10 3.03906V2.08301C10 1.84963 9.85078 1.6633 9.6582 1.60352L9.57324 1.58594C9.09167 1.53359 8.56554 1.5 8 1.5Z" fill="black"/>
</svg>

<!-- This Source Code Form is subject to the terms of the Mozilla Public
   - License, v. 2.0. If a copy of the MPL was not distributed with this
   - file, You can obtain one at http://mozilla.org/MPL/2.0/. -->
<svg xmlns="http://www.w3.org/2000/svg" width="16" height="16" fill="context-fill" fill-opacity="context-fill-opacity" viewBox="0 0 16 16">
    <path fill-rule="evenodd" d="M8 0c.624 0 1.205.037 1.735.095 1.026.111 1.765.989 1.765 1.988v1.03q.627.042 1.277.1l.746.072.258.04A2.76 2.76 0 0 1 16 6.024v5.95c0 1.4-1.049 2.59-2.454 2.737a53.6 53.6 0 0 1-11.068.003A2.76 2.76 0 0 1 0 11.975v-5.95c0-1.4 1.049-2.59 2.454-2.737q.986-.102 2.046-.173v-1.03A2.01 2.01 0 0 1 6.292.091C6.919.024 7.493 0 8 0m0 4.5a52 52 0 0 0-3 .087v8.825q1.588.09 3 .088c1.041 0 2.043-.033 3-.088V4.587A52 52 0 0 0 8 4.5m-4.5.196q-.453.039-.89.084c-.629.066-1.11.601-1.11 1.245v5.95c0 .639.49 1.18 1.133 1.248q.438.045.867.082zm9 8.607q.453-.04.89-.083c.629-.066 1.11-.601 1.11-1.245v-5.95c0-.638-.49-1.18-1.133-1.248q-.438-.045-.867-.083zM8 1.5c-.46 0-.98.022-1.548.083A.51.51 0 0 0 6 2.085v.953a53 53 0 0 1 4 .001v-.956c0-.233-.15-.42-.342-.48l-.085-.017A15 15 0 0 0 8 1.5" clip-rule="evenodd" />
</svg>
